!!!COM: Albano, Marcello
!!!CDT: 1580-1616
!!!PTL: Il primo libro di canzoni e madrigaletti a tre et a quattro voci
!!!PPP: Naples
!!!PPR: Giovanni Giacomo Carlino
!!!PDT: 1616
!!!PUB-format:
!!!RISM: A 600
!!!rime: 418
!!!OTL: Ardi e gela a tua voglia
!!!AGN: Madrigal
!!!SCT: Trm0418v
!!!SCA: Trm0418v
!!!original-voices: 3
!!!extant-voices: 2
!!!complete: N
!!!final: A
!!!ONB: Basso not extant
**kern	**text	**kern	**text
*part2	*part2	*part1	*part1
*staff2	*staff2	*staff1	*staff1
*I"Alto	*	*I"Canto Primo	*
*I'A	*	*I'C	*
*oclefC2	*	*oclefC1	*
*clefG2	*	*clefG2	*
*k[]	*	*k[]	*
*omet(C)	*	*omet(C)	*
*M4/2	*	*M4/2	*
!!LO:TX:a:t=Madrigale a tre. [Basso not extant]
2a	Ar-	2r	.
2g	-di e	2ee	Ar-
4f	ge-	2dd	-di e
8e	-l’a	.	.
8d	tua	.	.
8eL	vo-	4cc	ge-
16f	.	.	.
16gJ	.	.	.
[4a	.	8b	-l’a
.	.	8a	tua
=2	=2	=2	=2
4a]	.	2b	vo-
4g#X	.	.	.
2a	-glia,	4a	-glia,
.	.	2cc	<Ar-
2e	<Ar-	.	.
.	.	4b	-di e
2d	-di e	2dd	ge-
=3	=3	=3	=3
4c	ge-	4g	-l’a
8B	-l’a	4cc	tua
8A	tua	.	.
2B	vo-	2b	vo-
2A	-glia,>	2e	-glia,>
2e	Per	2cc	Per-
=4	=4	=4	=4
8e	fi-	8g#X	-fi-
8e	-do ed	8g#X	-do ed
8B	im-	8g#X	im-
8e	-pu-	8a	-pu-
4e	-di-	2f#X	-di-
4d#X	.	.	.
2e	-co,	2g#X	-co,
2r	.	2a	Ho-
=5	=5	=5	=5
4d	Ho-	2b	-r’a-
2e	-r’a-	.	.
.	.	2cc	-man-
4f	-man-	.	.
2d	-t’hor	2b	-t’hor
4e	ne-	2cc	ne-
[4f	-mi-	.	.
=6	=6	=6	=6
4f]	.	2dd	-mi-
8eL	.	.	.
8dJ	.	.	.
2e	.	2g	-co;
4f	-co;	2a	Ché
4f	Ché	.	.
4.e	d’in-	4.g	d’in-
8f	-co-	8a	-co-
=7	=7	=7	=7
4d	-stan-	4f	-stan-
4d	-t’in-	4g	-t’in-
4d	-ge-	2e	-ge-
4c#X	.	.	.
2d	-gno	2d	-gno
4a	Po-	4r	.
8g	-co	4ee	Po-
8f	l’a-	.	.
=8	=8	=8	=8
4g	-mor	8dd	-co
.	.	8cc	l’a-
4d	io	4dd	-mor
2f	sti-	4a	io
.	.	2cc	sti-
2e	-mo,	.	.
.	.	4b	-mo,
4e	<Po-	4cc	<Po-
8e	-co	8b	-co
8f	l’a-	8a	l’a-
=9	=9	=9	=9
4d	-mor	4b	-mor
4e	io	4g#i	io
4e	sti-	2a	sti-
4d	.	.	.
4e	-mo>	4g#X	-mo>
4e	e	4cc	e
4g	men	4b	men
4c	lo	4a	lo
=10	=10	=10	=10
2c	sde-	4g	sde-
.	.	8fL	.
.	.	8eJ	.
2B	.	2d	.
4c	-gno:	2e	-gno:
4g	E	.	.
4.e	se 'l	4r	.
.	.	4cc	E
8f	tuo a-	.	.
=11	=11	=11	=11
4.d	-mor	4.b	se 'l
8c	fu	8cc	tuo a-
4f	va-	4a	-mor
8eL	.	4dd	fu
8dJ	.	.	.
2e	.	4dd	va-
.	.	4cc#X	.
2d	-no,	2dd	-no,
=12	=12	=12	=12
4r	.	4ee	Van
4a	Van	8cc	fia
.	.	8b	lo
8f	fia	8a	sde-
8e	la	8e	-gno
8d	sde-	8f	del
8B	-gno	8g	tuo
8d	del	2a	cor
8e	tuo	.	.
2f	cor	.	.
.	.	8aL	in-
.	.	8g	.
4f	in-	8a	.
.	.	8fJ	.
=13	=13	=13	=13
4f	-sa-	2g	-sa
4e	.	.	.
8f	-no,	2a	no,
8c	Van	.	.
8d	fia	.	.
8e	lo	.	.
8f	sde-	8r	.
8d	-gno	8f	Van
8f	del	8a	fia
8g	tuo	8b	lo
2a	cor,	8cc	sde-
.	.	8a	-gno
.	.	8cc	del
.	.	8dd	tuo
=14	=14	=14	=14
4r	.	2ee	cor
8e	del	.	.
8f#X	tuo	.	.
4g#i	cor	4r	.
4a	in	4b	in-
4g#X	sa-	1b	-sa-
2a	.	.	.
4g#X	.	.	.
=15	=15	=15	=15
0al	-no.	0al	-no.
==	==	==	==
*-	*-	*-	*-
!!!system-decoration: [*]
!!!RDF**kern: i = editorial accidental
!!!RDF**kern: l = terminal long
!!!ENC: Emiliano Ricciardi
!!!END: 2016/02/13
!!!EED: Schleuse, Paul
!!!EEV: 2017/11/18
!!!YEC: Copyright 2017 Emiliano Ricciardi, All Rights Reserved
!!!ONB: Translated from MusicXML on 2017/11/18 and edited by Craig Stuart Sapp
!!@@BEGIN:	VERSEDATA
!!@SOLERTI:	418
!!@CATALOGNUM:	Trm0418
!!@LAST_MODIFIED: 2020/07/12
!!@TITLE:		Ardi e gela a tua voglia
!!@GENRE:		madrigale
!!@MANUSRC:	E<sub>1</sub>, M<sub>7</sub>, N<sub>21</sub>, V<sub>13/E1</sub>
!!@PRINTSRC:	22, 26, 31, 35, 60, 69, 86, 93, 121, 141, 145, 159<sup>bis</sup>, 166, 169
!!@@BEGIN:	VERSES
!!@ABOUTIT:	[Risposta in nome di una dama ad un madrigale di B. Guarini]
!!@ABOUTEN:	[Response on behalf of a lady to a madrigale by B. Guarini]
!!@EDITOR:	Solerti, Angelo
!!@EDITION_TITLE: Le Rime di Torquato Tasso
!!@EDITION_LOC:	Bologna
!!@EDITION_PUB:	Romagnoli-Dall’Acqua
!!@EDITION_DATE:  1898-1902
!!@EDITION_VOL:	2
!!@EDITION_PAGE:  453
!!@TRANSLATOR:	Emiliano Ricciardi and Amyrose McCue Gill
!!@VERSE:
!!	Ardi e gela a tua voglia,
!!	Perfido ed impudico,
!!	Or'amante or nemico;
!!	Ché d'incostante ingegno
!!	Poco l'amore i' stimo e men lo sdegno:
!!	E se 'l tuo amor fu vano,
!!	Van fia lo sdegno del tuo cor insano.
!!@TVERSE:
!!	Burn and freeze as you wish,
!!	Wicked and shameless man,
!!	Now lover, now enemy;
!!	Since, for a fickle mind,
!!	Little love I bear and [esteem] even less its scorn:
!!	And if your love was in vain,
!!	May vain be the scorn of your demented heart.
!!@@END:		VERSES
!!@OTHER_CRIT_ED:   None
!!@ATTRIBUTION_ABOUT:	Secure
!!		<br>
!!		Among other sources, this poem appears in the authoritative manuscript It. 385, Biblioteca Estense Universitaria, Modena, Italy (see Literary Sources).
!!@DATING:	In or before 1583
!!@DEDICATEE:
!!@COMMENTARY:
!!@@END:		VERSEDATA
!!@@BEGIN:	SETTING
!!@CATALOGNUM:	Trm0418v
!!@RIMETITLE:	Ardi e gela a tua voglia
!!@SOLERTI:	418
!!@COMPOSER:	Albano, Marcello
!!@PRINCEPSTITLE:	Il primo libro di canzoni e madrigaletti a tre et a quattro voci
!!@PRINCEPSLOC:	Napoli
!!@NORMLOC:	Naples
!!@NORMPUB:	Giovanni Giacomo Carlino
!!@NORMPUBSHORT:	Carlino
!!@PRINCEPSPUB:	Carlino
!!@PRINCEPSYEAR:	1616
!!@PRINCEPSRISM:	A 600
!!@REPRINTS:	
!!@OVOICES:	3
!!@EXTANTVOICES:	2
!!@PARTBOOKS:	
!!@EXTPARTBOOKS:	
!!@OCLEFS:	C1,C2
!!@OMENSURATION:C
!!@OKEYSIG:	-
!!@FINAL:	A
!!@TIMPEDITOR:	Schleuse, Paul
!!@NOTE:		
!!@@END:		SETTING
